X: 20
T: Merry Blacksmith, The
Z: chansherly212
S: https://thesession.org/tunes/72#setting53937
R: reel
M: 4/4
L: 1/8
K: Dmaj
|:AB|"D" d3 A BAFA|ABdA BAFA|ABde fded|"A" Beed egfe|
"D" d3 A BAFA|ABdA BAFA|"G" ABde fdec|"A" dBAF "D" D2:|
|:fg|"D" abag fgfe|d2dA BAFA|ABde fded|"A" Beed e2fg|
"D" abag fgfe|d2dA BAFA|"G" ABde fdec|"A" dBAF "D" D2:|

%-------------------- TUNE SEPARATOR --------------------%

